public/images/partners/bk.svg

<svg width="55" height="61" viewBox="0 0 55 61" fill="none" xmlns="http://www.w3.org/2000/svg">
<path d="M50.3894 57.6468C45.8711 60.2545 38.1195 61 27.3969 61C16.6743 61 8.92279 60.2545 4.40447 57.6468C1.69253 56.0853 0.319824 53.9565 0.319824 52.4303C0.319824 51.561 0.772118 51.0641 1.77926 51.0641H53.0135C54.0217 51.0641 54.4731 51.561 54.4731 52.4303C54.474 53.9565 53.1012 56.0853 50.3894 57.6468ZM53.0135 17.1927H1.77926C0.772118 17.1927 0.319824 16.6605 0.319824 15.7027C0.319824 10.0245 8.67937 0 27.3969 0C45.941 0 54.474 10.0245 54.474 15.7027C54.474 16.6605 54.0217 17.1927 53.0135 17.1927Z" fill="white"/>
<path d="M11.2334 40.6141C11.0767 40.3656 11.0599 40.2056 11.0599 40.1352C11.0599 39.94 11.1643 39.7981 11.3723 39.603C11.859 39.1412 13.0584 37.9883 13.7186 36.9419C14.2222 36.1431 14.4311 35.4157 14.4311 34.8131C14.4311 33.2697 13.0584 32.0625 11.5634 32.0625C10.6076 32.0625 9.70388 32.6128 9.09587 33.6239C8.27896 34.972 7.30538 36.5335 6.68051 37.1552C6.52383 37.3151 6.43717 37.3504 6.31591 37.3504C6.10702 37.3504 6.02029 37.2085 6.02029 36.9781V35.2034C6.02029 33.4649 5.01218 32.0625 3.18716 32.0625C1.34529 32.0625 0.354004 33.464 0.354004 35.2034V46.1333C0.354004 47.8718 1.3444 49.2743 3.18716 49.2743C5.01218 49.2743 6.02029 47.8728 6.02029 46.1333V43.6141C6.02029 43.4009 6.10702 43.2418 6.31591 43.2418C6.59378 43.2418 6.66373 43.5255 6.73279 43.6674C7.13281 44.6433 8.29664 46.7189 9.3747 47.9432C10.1049 48.7592 11.0086 49.2743 11.9645 49.2743C13.5806 49.2743 14.9366 47.8366 14.9366 46.2933C14.9366 45.3355 14.5365 44.6252 13.7718 43.774C12.7982 42.6896 11.6511 41.2701 11.2334 40.6141Z" fill="white"/>
<path d="M32.9064 31.0503C35.6351 31.0503 37.3557 29.2756 37.3557 26.6859C37.3557 25.036 36.3821 23.9001 34.4358 23.9001H33.88C32.8542 23.9001 32.055 24.3971 32.055 25.5149C32.055 26.5089 32.9064 26.9877 33.5499 26.9877C33.88 26.9877 34.0889 27.0944 34.0889 27.3429C34.0889 27.6619 33.7243 27.8751 33.3065 27.8751C32.0028 27.8751 31.1168 26.9344 31.1168 25.1779C31.1168 23.2261 32.3338 22.5168 33.272 22.5168C34.419 22.5168 34.6102 23.1204 35.4094 23.1204C36.3308 23.1204 36.9565 22.3397 36.9565 21.5237C36.9565 20.9201 36.6955 20.4594 36.2963 20.1394C35.5661 19.5891 34.5412 19.1816 33.0118 19.1816C30.3176 19.1816 27.6934 20.9915 27.6934 25.1788C27.6925 29.1871 30.3167 31.0503 32.9064 31.0503Z" fill="white"/>
<path d="M2.35282 30.9435H4.8036C7.11545 30.9435 8.52269 29.3639 8.52269 27.395C8.52269 25.8155 7.60131 25.0881 7.39332 24.911C7.30658 24.8397 7.21985 24.7692 7.21985 24.6977C7.21985 24.6092 7.27213 24.574 7.35886 24.4673C7.68893 24.077 8.01908 23.4562 8.01908 22.5508C8.01908 20.422 6.61094 19.2861 4.42125 19.2861H2.35282C0.980109 19.2861 0.319824 20.103 0.319824 21.2027V29.0269C0.319824 30.1275 0.980109 30.9435 2.35282 30.9435ZM3.37861 22.3385C3.37861 22.1081 3.51762 21.93 3.81324 21.93H4.0389C4.78585 21.93 5.01249 22.4623 5.01249 22.924C5.01249 23.3496 4.78682 23.9532 4.0389 23.9532H3.81324C3.51762 23.9532 3.37861 23.7761 3.37861 23.5448V22.3385ZM3.37861 26.4905C3.37861 26.2601 3.51762 26.0821 3.81324 26.0821H4.12564C4.96029 26.0821 5.20273 26.6495 5.20273 27.1646C5.20273 27.6264 4.95932 28.2823 4.12564 28.2823H3.81324C3.51762 28.2823 3.37861 28.1053 3.37861 27.8739V26.4905Z" fill="white"/>
<path d="M47.7298 31.0321C48.8424 31.0321 49.4504 30.1799 49.4504 29.1155V27.2351C49.4504 27.0047 49.5549 26.8981 49.7283 26.8981C49.9373 26.8981 50.0062 27.0218 50.0408 27.2351C50.1974 28.1396 50.6142 29.3639 51.0833 29.9857C51.6746 30.7845 52.2304 31.033 52.7862 31.033C53.6899 31.033 54.4723 30.3055 54.4723 29.4001C54.4723 28.7966 54.2289 28.3529 53.9165 27.9454C53.3252 27.1827 52.9606 26.6857 52.7349 26.065C52.6827 25.9231 52.7172 25.7984 52.8739 25.6747C53.4129 25.249 54.0386 24.3084 54.0386 22.8184C54.0386 20.5648 52.2136 19.2871 50.0062 19.2871H48.0422C46.6695 19.2871 46.0093 20.1031 46.0093 21.2037V29.1173C46.0093 30.1809 46.6173 31.0321 47.7298 31.0321ZM49.2592 22.6404C49.2592 22.4099 49.3982 22.2319 49.6938 22.2319H49.9373C50.6674 22.2319 50.8931 22.7641 50.8931 23.2259C50.8931 23.6696 50.6674 24.2551 49.9373 24.2551H49.6938C49.3982 24.2551 49.2592 24.078 49.2592 23.8466V22.6404Z" fill="white"/>
<path d="M19.1595 32.0615C17.2132 32.0615 16.1528 33.5515 16.1528 35.4147V45.9191C16.1528 47.7823 17.2132 49.2723 19.1595 49.2723C21.1057 49.2723 22.1661 47.7823 22.1661 45.9191V35.4147C22.1661 33.5524 21.1067 32.0615 19.1595 32.0615Z" fill="white"/>
<path d="M50.0589 38.8922H49.2075C47.6781 38.8922 46.4965 39.6196 46.4965 41.2162C46.4965 42.671 47.7825 43.3632 48.7384 43.3632C49.2075 43.3632 49.5377 43.505 49.5377 43.8773C49.5377 44.3391 48.9818 44.6399 48.3905 44.6399C46.4266 44.6399 45.0883 43.2737 45.0883 40.7364C45.0883 37.9154 46.9133 36.8861 48.3206 36.8861C50.0412 36.8861 50.3191 37.7735 51.5184 37.7735C52.9089 37.7735 53.847 36.6206 53.847 35.4494C53.847 34.5802 53.4647 33.9061 52.8567 33.4444C51.7963 32.6456 50.1979 32.0601 47.9382 32.0601C43.8891 32.0601 39.9434 34.6678 39.9434 40.7364C39.9434 46.5384 43.8881 49.2528 47.7816 49.2528C51.8653 49.2528 54.455 46.6802 54.455 42.9186C54.456 40.5422 52.9965 38.8922 50.0589 38.8922Z" fill="white"/>
<path d="M43.4899 30.9429C44.4635 30.9429 45.2282 30.3574 45.2282 29.293C45.2282 28.2457 44.4635 27.6601 43.4899 27.6601H41.926C41.6304 27.6601 41.4914 27.483 41.4914 27.2517V26.9146C41.4914 26.6842 41.6304 26.5062 41.926 26.5062H43.1252C43.9599 26.5062 44.6202 25.9921 44.6202 25.0866C44.6202 24.1821 43.9599 23.6671 43.1252 23.6671H41.926C41.6304 23.6671 41.4914 23.4899 41.4914 23.2586V22.9749C41.4914 22.7445 41.6304 22.5665 41.926 22.5665H43.4899C44.4635 22.5665 45.2282 21.981 45.2282 20.9165C45.2282 19.8692 44.4635 19.2837 43.4899 19.2837H40.2054C38.8327 19.2837 38.1724 20.0996 38.1724 21.2002V29.0245C38.1724 30.1241 38.8327 30.941 40.2054 30.941H43.4899V30.9429Z" fill="white"/>
<path d="M13.6324 31.0321C16.4479 31.0321 17.9427 29.3106 17.9427 27.1466V21.1675C17.9427 20.1031 17.3347 19.251 16.2221 19.251C15.1096 19.251 14.5016 20.1031 14.5016 21.1675V26.9514C14.5016 27.377 14.2582 27.874 13.6324 27.874C13.0066 27.874 12.7978 27.377 12.7978 26.9514V21.1675C12.7978 20.1031 12.172 19.251 11.0595 19.251C9.94688 19.251 9.33887 20.1031 9.33887 21.1675V27.1466C9.33984 29.3116 10.817 31.0321 13.6324 31.0321Z" fill="white"/>
<path d="M25.8326 31.032C26.7362 31.032 27.5187 30.3046 27.5187 29.3992C27.5187 28.7955 27.2752 28.3519 26.9628 27.9444C26.4592 27.2703 26.0069 26.6847 25.7813 26.064C25.7291 25.9222 25.7635 25.7974 25.9202 25.6737C26.4592 25.248 27.085 24.3074 27.085 22.8174C27.085 20.5638 25.26 19.2861 23.0526 19.2861H21.0877C19.7149 19.2861 19.0547 20.1021 19.0547 21.2027V29.1164C19.0547 30.1808 19.6627 31.0329 20.7752 31.0329C21.8878 31.0329 22.4958 30.1808 22.4958 29.1164V27.236C22.4958 27.0056 22.6003 26.899 22.7738 26.899C22.9827 26.899 23.0516 27.0228 23.0862 27.236C23.2429 28.1405 23.6597 29.3649 24.1287 29.9866C24.72 30.7835 25.2758 31.032 25.8326 31.032ZM22.9817 24.2541H22.7383C22.4427 24.2541 22.3037 24.077 22.3037 23.8457V22.6403C22.3037 22.4099 22.4427 22.2319 22.7383 22.2319H22.9817C23.7119 22.2319 23.9376 22.764 23.9376 23.2258C23.9376 23.6685 23.7119 24.2541 22.9817 24.2541Z" fill="white"/>
<path d="M35.8261 32.0615C34.0357 32.0615 33.063 33.4277 33.063 35.1491V38.9812C33.063 39.3002 32.9585 39.443 32.7674 39.443C32.6284 39.443 32.5239 39.3545 32.4027 39.106L29.9873 34.3151C29.066 32.4871 28.1101 32.0615 27.0153 32.0615C25.1902 32.0615 24.1821 33.463 24.1821 35.2196V46.1856C24.1821 47.907 25.1557 49.2733 26.9453 49.2733C28.7359 49.2733 29.7086 47.907 29.7086 46.1856V42.3535C29.7086 42.0346 29.813 41.8918 30.0042 41.8918C30.1431 41.8918 30.2475 41.9803 30.3688 42.2288L32.7841 47.0196C33.7055 48.8477 34.6959 49.2733 35.7562 49.2733C37.5813 49.2733 38.5893 47.8718 38.5893 46.1152V35.1491C38.5893 33.4277 37.6167 32.0615 35.8261 32.0615Z" fill="white"/>
<path d="M52.0088 59.4897C52.0088 59.0127 52.3706 58.6138 52.8667 58.6138C53.3629 58.6138 53.7247 59.0127 53.7247 59.4897C53.7247 60.0019 53.3629 60.3713 52.8667 60.3713C52.3706 60.3722 52.0088 59.9962 52.0088 59.4897ZM53.5382 59.4897C53.5382 59.0488 53.1997 58.7928 52.8667 58.7928C52.5338 58.7928 52.1953 59.0488 52.1953 59.4897C52.1953 59.9486 52.5338 60.1923 52.8667 60.1923C53.1997 60.1923 53.5382 59.9486 53.5382 59.4897ZM52.5692 59.8657V59.1212C52.5692 59.0736 52.6103 59.026 52.6569 59.026H52.9022C53.0943 59.026 53.2285 59.145 53.2285 59.306C53.2285 59.4431 53.153 59.562 52.9778 59.5915L53.1699 59.8124C53.1875 59.8306 53.1987 59.8544 53.1987 59.8714C53.1987 59.9248 53.1633 59.961 53.1111 59.961C53.0757 59.961 53.0523 59.9429 53.0355 59.9191L52.7791 59.6097H52.7501V59.8657C52.7501 59.9134 52.7091 59.9552 52.6569 59.9552C52.6103 59.9543 52.5692 59.9134 52.5692 59.8657ZM52.8789 59.4421C52.9842 59.4421 53.042 59.3888 53.042 59.3173C53.042 59.2402 52.9898 59.1984 52.8966 59.1984H52.7511V59.4431H52.8789V59.4421Z" fill="white"/>
</svg>

<svg width="55" height="61" viewBox="0 0 55 61" fill="none" xmlns="http://www.w3.org/2000/svg"><path d="M50.39 57.647C45.87 60.255 38.12 61 27.396 61s-18.474-.745-22.993-3.353C1.693 56.085.32 53.957.32 52.43c0-.87.452-1.366 1.46-1.366h51.234c1.008 0 1.46.497 1.46 1.366 0 1.527-1.373 3.655-4.085 5.217zm2.624-40.454H1.778c-1.008 0-1.46-.533-1.46-1.49C.32 10.024 8.68 0 27.397 0 45.94 0 54.474 10.024 54.474 15.703c0 .957-.452 1.49-1.46 1.49z" fill="white"/><path d="M11.233 40.614c-.156-.248-.173-.408-.173-.479 0-.195.104-.337.312-.532.487-.462 1.686-1.615 2.347-2.661.502-.799.711-1.526.711-2.129.001-1.543-1.372-2.75-2.867-2.75-.955 0-1.86.55-2.467 1.56-.817 1.35-1.79 2.91-2.415 3.532-.156.16-.243.195-.364.195-.21 0-.296-.141-.296-.372v-1.775c0-1.738-1.008-3.14-2.833-3.14-1.842 0-2.833 1.4-2.833 3.14v10.93c0 1.739.99 3.141 2.833 3.141 1.825 0 2.833-1.401 2.833-3.14v-2.52c0-.213.087-.372.296-.372.278 0 .348.284.417.425.4.976 1.564 3.052 2.642 4.276.73.816 1.634 1.331 2.59 1.331 1.616 0 2.972-1.437 2.972-2.98 0-.958-.4-1.669-1.165-2.52-.974-1.084-2.12-2.504-2.539-3.16z" fill="white"/><path d="M32.906 31.05c2.73 0 4.45-1.774 4.45-4.364 0-1.65-.974-2.786-2.92-2.786h-.556c-1.026 0-1.825.497-1.825 1.615 0 .994.851 1.473 1.495 1.473.33 0 .539.106.539.355-.001.319-.366.532-.784.532-1.303 0-2.19-.94-2.19-2.697 0-1.952 1.218-2.661 2.156-2.661 1.147 0 1.338.603 2.137.603.92 0 1.547-.78 1.547-1.596 0-.604-.262-1.065-.66-1.385-.73-.55-1.756-.958-3.285-.958-2.694 0-5.319 1.81-5.319 5.997 0 4.007 2.624 5.87 5.213 5.87z" fill="white"/><path d="M2.353 30.944h2.45c2.312 0 3.72-1.58 3.72-3.55 0-1.578-.922-2.306-1.13-2.483-.086-.07-.173-.14-.173-.212 0-.089.052-.124.139-.23.329-.39.66-1.012.66-1.917 0-2.128-1.41-3.264-3.599-3.264H2.354c-1.373 0-2.033.817-2.033 1.917v7.824c0 1.1.66 1.917 2.033 1.917zm1.026-8.606c-.001-.23.138-.408.433-.408h.226c.746 0 .972.532.972.994 0 .426-.225 1.03-.973 1.03h-.227c-.295 0-.434-.178-.434-.41v-1.206zm-.001 4.153c-.001-.23.138-.408.433-.408h.313c.834 0 1.077.567 1.077 1.083 0 .461-.244 1.117-1.077 1.117h-.313c-.295 0-.434-.177-.434-.408V26.49z" fill="white"/><path d="M47.73 31.032c1.112 0 1.72-.852 1.72-1.917v-1.88c0-.23.105-.337.278-.337.21 0 .278.124.313.337.157.905.574 2.129 1.043 2.75.592.8 1.147 1.048 1.703 1.048.904 0 1.686-.728 1.686-1.633 0-.603-.243-1.047-.556-1.455-.59-.762-.955-1.26-1.181-1.88-.052-.142-.018-.267.139-.39.539-.426 1.165-1.367 1.165-2.857-.001-2.253-1.826-3.53-4.034-3.53h-1.964c-1.373 0-2.033.815-2.033 1.916v7.913c0 1.064.607 1.915 1.72 1.915zm1.53-8.392c0-.23.138-.408.434-.408h.243c.73 0 .956.532.956.994 0 .444-.226 1.03-.956 1.03h-.243c-.296 0-.435-.178-.435-.41V22.64z" fill="white"/><path d="M19.16 32.062c-1.947 0-3.007 1.49-3.007 3.353v10.504c0 1.862 1.06 3.352 3.007 3.352 1.946 0 3.006-1.49 3.006-3.353V35.414c0-1.863-1.06-3.354-3.007-3.354z" fill="white"/><path d="M50.059 38.892h-.853c-1.529 0-2.71.728-2.71 2.324 0 1.455 1.285 2.147 2.241 2.147.47 0 .8.142.8.514 0 .462-.556.763-1.147.763-1.963 0-3.302-1.366-3.302-3.904 0-2.82 1.825-3.85 3.233-3.85 1.721 0 2 .887 3.198.887 1.39 0 2.33-1.152 2.33-2.324a2.43 2.43 0 0 0-.991-2.006c-1.06-.798-2.66-1.384-4.919-1.384-4.049 0-7.995 2.608-7.995 8.676 0 5.802 3.945 8.517 7.839 8.517 4.083 0 6.673-2.573 6.673-6.334 0-2.378-1.459-4.028-4.396-4.028z" fill="white"/><path d="M43.49 30.943c.973 0 1.738-.586 1.738-1.65 0-1.047-.764-1.633-1.738-1.633h-1.564c-.296 0-.435-.177-.435-.408v-.337c.001-.23.14-.409.436-.409h1.2c.834 0 1.494-.514 1.494-1.42 0-.904-.66-1.419-1.495-1.419h-1.2c-.295 0-.434-.177-.434-.408v-.285c.001-.23.14-.409.436-.409h1.564c.973 0 1.738-.585 1.738-1.65 0-1.047-.764-1.632-1.738-1.632h-3.285c-1.372 0-2.033.816-2.033 1.916v7.824c0 1.1.66 1.917 2.033 1.917h3.285v.003z" fill="white"/><path d="M13.632 31.032c2.816 0 4.31-1.721 4.31-3.885v-5.98c0-1.064-.607-1.916-1.72-1.916-1.112 0-1.72.853-1.72 1.917v5.784c0 .427-.244.924-.87.924-.625 0-.834-.497-.834-.923v-5.783c0-1.064-.626-1.916-1.739-1.916-1.113 0-1.721.853-1.721 1.917v5.98c0 2.165 1.477 3.885 4.292 3.885z" fill="white"/><path d="M25.833 31.032c.903 0 1.686-.727 1.686-1.633-.001-.604-.245-1.048-.557-1.456-.504-.674-.956-1.26-1.182-1.88-.05-.142-.017-.267.14-.39.54-.426 1.165-1.367 1.165-2.857 0-2.253-1.825-3.53-4.032-3.53h-1.965c-1.373 0-2.033.815-2.033 1.916v7.913c0 1.065.608 1.917 1.72 1.917 1.113 0 1.72-.852 1.72-1.917v-1.88c0-.23.105-.337.279-.337.209 0 .278.123.312.336.157.904.574 2.129 1.043 2.75.59.798 1.146 1.046 1.703 1.046zm-2.851-6.778h-.244c-.295 0-.434-.177-.434-.408V22.64c0-.23.139-.408.434-.408h.244c.73 0 .956.532.956.994 0 .443-.226 1.028-.956 1.028z" fill="white"/><path d="M35.826 32.062c-1.79 0-2.763 1.366-2.763 3.087v3.831c0 .32-.104.463-.296.463-.139 0-.243-.089-.364-.337l-2.416-4.79c-.92-1.829-1.877-2.255-2.972-2.255-1.825.001-2.833 1.403-2.833 3.16v10.966c0 1.72.974 3.087 2.763 3.087 1.79 0 2.764-1.366 2.764-3.087v-3.833c-.001-.318.103-.461.294-.461.14 0 .243.088.365.337l2.414 4.79c.922 1.828 1.912 2.253 2.972 2.253 1.825 0 2.833-1.401 2.833-3.158V35.15c0-1.722-.973-3.089-2.764-3.089z" fill="white"/><path d="M52.009 59.49c-.001-.477.36-.876.857-.876.496 0 .858.399.858.876 0 .512-.362.881-.858.881-.496.002-.858-.374-.858-.88zm1.528 0a.673.673 0 0 0-.671-.697.673.673 0 0 0-.672.697c0 .459.339.702.672.702s.671-.243.671-.702zm-.969.376v-.745c0-.046.04-.094.087-.094h.245c.192 0 .326.12.326.28 0 .137-.075.256-.25.285l.192.222a.096.096 0 0 1 .029.06c-.001.053-.037.09-.089.09a.09.09 0 0 1-.075-.043l-.256-.31h-.03v.256c0 .047-.04.09-.093.09a.092.092 0 0 1-.088-.09zm.309-.424c.104 0 .162-.053.162-.125 0-.077-.052-.119-.145-.119h-.146v.245h.129z" fill="white"/></svg>
